Sweet-Rainbow/icons/dialog-information.svg

<?xml version="1.0" encoding="UTF-8" standalone="no"?>
<!-- Generator: Gravit.io -->

<svg
   xmlns:dc="http://purl.org/dc/elements/1.1/"
   xmlns:cc="http://creativecommons.org/ns#"
   xmlns:rdf="http://www.w3.org/1999/02/22-rdf-syntax-ns#"
   xmlns:svg="http://www.w3.org/2000/svg"
   xmlns="http://www.w3.org/2000/svg"
   xmlns:sodipodi="http://sodipodi.sourceforge.net/DTD/sodipodi-0.dtd"
   xmlns:inkscape="http://www.inkscape.org/namespaces/inkscape"
   style="isolation:isolate"
   viewBox="0 0 36 36"
   width="48"
   height="48"
   version="1.1"
   id="svg9"
   sodipodi:docname="dialog-information.svg"
   inkscape:version="0.92.4 (5da689c313, 2019-01-14)">
  <metadata
     id="metadata15">
    <rdf:RDF>
      <cc:Work
         rdf:about="">
        <dc:format>image/svg+xml</dc:format>
        <dc:type
           rdf:resource="http://purl.org/dc/dcmitype/StillImage" />
        <dc:title></dc:title>
      </cc:Work>
    </rdf:RDF>
  </metadata>
  <defs
     id="defs13" />
  <sodipodi:namedview
     pagecolor="#ffffff"
     bordercolor="#666666"
     borderopacity="1"
     objecttolerance="10"
     gridtolerance="10"
     guidetolerance="10"
     inkscape:pageopacity="0"
     inkscape:pageshadow="2"
     inkscape:window-width="640"
     inkscape:window-height="480"
     id="namedview11"
     showgrid="false"
     inkscape:zoom="29.365243"
     inkscape:cx="25.325443"
     inkscape:cy="32"
     inkscape:current-layer="svg9"
     units="px" />
  <linearGradient
     id="_lgradient_21"
     x1="0"
     y1="0.5"
     x2="1"
     y2="0.5"
     gradientTransform="matrix(36.001,0,0,46,6,1)"
     gradientUnits="userSpaceOnUse">
    <stop
       offset="0%"
       stop-opacity="1"
       style="stop-color:rgb(247,242,6)"
       id="stop2" />
    <stop
       offset="97.82608695652173%"
       stop-opacity="1"
       style="stop-color:rgb(255,187,36)"
       id="stop4" />
  </linearGradient>
  <g
     id="g826"
     transform="matrix(0.78260534,0,0,0.78260534,-0.78252816,-0.7824509)">
    <path
       id="path7"
       d="m 13.52,26 c -0.09,0 -0.18,-0.02 -0.27,-0.06 -0.18,-0.09 -0.34,-0.2 -0.49,-0.35 -0.24,-0.24 -0.46,-0.51 -0.65,-0.8 -0.25,-0.4 -0.47,-0.81 -0.66,-1.24 C 10.96,22.41 10.61,21.23 10.4,20.01 10.13,18.53 9.99,17.02 10,15.51 10.01,14.14 10.35,12.8 11.01,11.6 11.73,10.3 12.72,9.16 13.91,8.25 15.26,7.21 16.77,6.41 18.39,5.88 20.2,5.29 22.1,4.99 24,5 c 1.9,-0.01 3.8,0.29 5.61,0.88 1.62,0.53 3.13,1.33 4.48,2.37 1.19,0.91 2.18,2.05 2.9,3.35 0.66,1.2 1,2.54 1.01,3.91 0.01,1.51 -0.13,3.02 -0.4,4.5 -0.21,1.22 -0.56,2.4 -1.05,3.54 -0.19,0.43 -0.41,0.84 -0.66,1.24 -0.19,0.29 -0.41,0.56 -0.65,0.8 -0.15,0.15 -0.31,0.26 -0.49,0.35 -0.09,0.04 -0.18,0.06 -0.27,0.06 -1.23,0.02 -2.42,0.46 -3.38,1.23 -0.93,0.76 -1.7,1.7 -2.26,2.77 -0.62,1.15 -1.07,2.39 -1.36,3.67 -0.17,0.77 -0.3,1.55 -0.38,2.33 H 20.9 C 20.82,35.22 20.69,34.44 20.52,33.67 20.23,32.39 19.78,31.15 19.16,30 18.6,28.93 17.83,27.99 16.9,27.23 15.94,26.46 14.75,26.02 13.52,26 Z M 27,43 v -2 h 4 v 2 1 c 0,1.656 -1.344,3 -3,3 h -8 c -1.656,0 -3,-1.344 -3,-3 v -1 -2 h 4 v 2 h 6 -6 v 0 z M 13.46,30 C 12.8,29.99 12.14,29.84 11.53,29.55 10.95,29.27 10.42,28.9 9.96,28.44 9.5,27.99 9.09,27.49 8.74,26.94 8.37,26.36 8.05,25.76 7.77,25.13 7.17,23.71 6.73,22.23 6.46,20.72 6.15,18.99 5.99,17.24 6,15.49 6.01,13.46 6.53,11.46 7.51,9.67 8.5,7.88 9.85,6.32 11.47,5.08 13.18,3.76 15.1,2.75 17.16,2.08 19.36,1.36 21.68,0.99 24,1 c 2.32,-0.01 4.64,0.36 6.84,1.08 2.06,0.67 3.98,1.68 5.69,3 1.62,1.24 2.97,2.8 3.96,4.59 0.98,1.79 1.5,3.79 1.51,5.82 0.01,1.75 -0.15,3.5 -0.46,5.23 -0.27,1.51 -0.71,2.99 -1.31,4.41 -0.28,0.63 -0.6,1.23 -0.97,1.81 -0.35,0.55 -0.76,1.05 -1.22,1.5 -0.46,0.46 -0.99,0.83 -1.57,1.11 -0.6,0.29 -1.26,0.44 -1.93,0.45 -0.34,0.01 -0.66,0.13 -0.92,0.34 -0.52,0.42 -0.94,0.94 -1.24,1.52 -0.45,0.85 -0.79,1.75 -1,2.69 -0.26,1.13 -0.38,2.28 -0.38,3.44 0,0.53 -0.21,1.05 -0.58,1.42 C 30.04,39.79 29.53,40 29,40 H 19 C 18.47,40 17.96,39.79 17.58,39.41 17.21,39.04 17,38.52 17,37.99 c 0,-1.16 -0.12,-2.31 -0.38,-3.44 -0.21,-0.94 -0.55,-1.84 -1,-2.69 -0.3,-0.58 -0.72,-1.1 -1.24,-1.52 C 14.12,30.13 13.8,30.01 13.46,30 Z M 24.57,9.44 v 0 C 23.775,9.197 23.325,8.357 23.565,7.565 v 0 C 23.805,6.773 24.641,6.323 25.43,6.56 v 0 c 1.47,0.45 2.89,1.05 4.22,1.8 1.15,0.65 2.21,1.44 3.14,2.37 0.83,0.81 1.51,1.77 2,2.81 0.47,0.97 0.71,2.03 0.72,3.11 0,0.02 0,0.04 0,0.06 l -0.01,0.34 v 0 c -0.028,0.828 -0.722,1.478 -1.55,1.45 v 0 C 33.122,18.472 32.472,17.778 32.5,16.95 v 0 l 0.01,-0.3 C 32.5,16.02 32.36,15.4 32.09,14.83 31.74,14.1 31.26,13.43 30.68,12.86 29.94,12.12 29.1,11.49 28.19,10.98 27.04,10.33 25.83,9.82 24.57,9.44 Z"
       style="fill:url(#_lgradient_21);fill-rule:evenodd"
       inkscape:connector-curvature="0" />
  </g>
</svg>

<?xml version="1.0" encoding="UTF-8" standalone="no"?><!-- Generator: Gravit.io --><svg xmlns="http://www.w3.org/2000/svg" xmlns:xlink="http://www.w3.org/1999/xlink" style="isolation:isolate" viewBox="0 0 48 48" width="48pt" height="48pt"><linearGradient id="_lgradient_21" x1="0" y1="0.5" x2="1" y2="0.5" gradientTransform="matrix(36.001,0,0,46,6,1)" gradientUnits="userSpaceOnUse"><stop offset="0%" stop-opacity="1" style="stop-color:rgb(247,242,6)"/><stop offset="97.82608695652173%" stop-opacity="1" style="stop-color:rgb(255,187,36)"/></linearGradient><path d=" M 13.52 26 C 13.43 26 13.34 25.98 13.25 25.94 C 13.07 25.85 12.91 25.74 12.76 25.59 C 12.52 25.35 12.3 25.08 12.11 24.79 C 11.86 24.39 11.64 23.98 11.45 23.55 C 10.96 22.41 10.61 21.23 10.4 20.01 C 10.13 18.53 9.99 17.02 10 15.51 C 10.01 14.14 10.35 12.8 11.01 11.6 C 11.73 10.3 12.72 9.16 13.91 8.25 C 15.26 7.21 16.77 6.41 18.39 5.88 C 20.2 5.29 22.1 4.99 24 5 C 25.9 4.99 27.8 5.29 29.61 5.88 C 31.23 6.41 32.74 7.21 34.09 8.25 C 35.28 9.16 36.27 10.3 36.99 11.6 C 37.65 12.8 37.99 14.14 38 15.51 C 38.01 17.02 37.87 18.53 37.6 20.01 C 37.39 21.23 37.04 22.41 36.55 23.55 C 36.36 23.98 36.14 24.39 35.89 24.79 C 35.7 25.08 35.48 25.35 35.24 25.59 C 35.09 25.74 34.93 25.85 34.75 25.94 C 34.66 25.98 34.57 26 34.48 26 C 33.25 26.02 32.06 26.46 31.1 27.23 C 30.17 27.99 29.4 28.93 28.84 30 C 28.22 31.15 27.77 32.39 27.48 33.67 C 27.31 34.44 27.18 35.22 27.1 36 L 20.9 36 C 20.82 35.22 20.69 34.44 20.52 33.67 C 20.23 32.39 19.78 31.15 19.16 30 C 18.6 28.93 17.83 27.99 16.9 27.23 C 15.94 26.46 14.75 26.02 13.52 26 L 13.52 26 L 13.52 26 Z  M 27 43 L 27 41 L 31 41 L 31 43 L 31 44 C 31 45.656 29.656 47 28 47 L 20 47 C 18.344 47 17 45.656 17 44 L 17 43 L 17 41 L 21 41 L 21 43 L 27 43 L 21 43 L 21 43 L 27 43 L 27 43 Z  M 13.46 30 C 12.8 29.99 12.14 29.84 11.53 29.55 C 10.95 29.27 10.42 28.9 9.96 28.44 C 9.5 27.99 9.09 27.49 8.74 26.94 C 8.37 26.36 8.05 25.76 7.77 25.13 C 7.17 23.71 6.73 22.23 6.46 20.72 C 6.15 18.99 5.99 17.24 6 15.49 C 6.01 13.46 6.53 11.46 7.51 9.67 C 8.5 7.88 9.85 6.32 11.47 5.08 C 13.18 3.76 15.1 2.75 17.16 2.08 C 19.36 1.36 21.68 0.99 24 1 C 26.32 0.99 28.64 1.36 30.84 2.08 C 32.9 2.75 34.82 3.76 36.53 5.08 C 38.15 6.32 39.5 7.88 40.49 9.67 C 41.47 11.46 41.99 13.46 42 15.49 C 42.01 17.24 41.85 18.99 41.54 20.72 C 41.27 22.23 40.83 23.71 40.23 25.13 C 39.95 25.76 39.63 26.36 39.26 26.94 C 38.91 27.49 38.5 27.99 38.04 28.44 C 37.58 28.9 37.05 29.27 36.47 29.55 C 35.87 29.84 35.21 29.99 34.54 30 C 34.2 30.01 33.88 30.13 33.62 30.34 C 33.1 30.76 32.68 31.28 32.38 31.86 C 31.93 32.71 31.59 33.61 31.38 34.55 C 31.12 35.68 31 36.83 31 37.99 C 31 38.52 30.79 39.04 30.42 39.41 C 30.04 39.79 29.53 40 29 40 L 19 40 C 18.47 40 17.96 39.79 17.58 39.41 C 17.21 39.04 17 38.52 17 37.99 C 17 36.83 16.88 35.68 16.62 34.55 C 16.41 33.61 16.07 32.71 15.62 31.86 C 15.32 31.28 14.9 30.76 14.38 30.34 C 14.12 30.13 13.8 30.01 13.46 30 L 13.46 30 L 13.46 30 Z  M 24.57 9.44 L 24.57 9.44 C 23.775 9.197 23.325 8.357 23.565 7.565 L 23.565 7.565 C 23.805 6.773 24.641 6.323 25.43 6.56 L 25.43 6.56 C 26.9 7.01 28.32 7.61 29.65 8.36 C 30.8 9.01 31.86 9.8 32.79 10.73 C 33.62 11.54 34.3 12.5 34.79 13.54 C 35.26 14.51 35.5 15.57 35.51 16.65 C 35.51 16.67 35.51 16.69 35.51 16.71 L 35.5 17.05 L 35.5 17.05 C 35.472 17.878 34.778 18.528 33.95 18.5 L 33.95 18.5 C 33.122 18.472 32.472 17.778 32.5 16.95 L 32.5 16.95 L 32.51 16.65 C 32.5 16.02 32.36 15.4 32.09 14.83 C 31.74 14.1 31.26 13.43 30.68 12.86 C 29.94 12.12 29.1 11.49 28.19 10.98 C 27.04 10.33 25.83 9.82 24.57 9.44 Z " fill-rule="evenodd" fill="url(#_lgradient_21)"/></svg>
